X: 16
T: Sailor's Hymn v.1
P: piffero primo a0687
O: safd
%R: march
F: http://ancients.sudburymuster.org/mus/col/pdf/hymnsF.pdf
Z: 2020 John Chambers <jc:trillian.mit.edu>
M: 4/4
L: 1/4
K: D
D |\
F>F AA | BB AA |\
de cA | A^G AE |\
G>G FF | A>A ^Gc |
A^G FB | A^G FF |\
F>F GG | ^G>G AA |\
AB AF | E>D D :|


